; ===== 3DPLOTTER.XYZ MARKER PLOTTER G-CODE =====
; Generated by 3dplotter.xyz
; PEN PLOTTER MODE - NO FILAMENT EXTRUSION
; Firmware: Bambu Lab
;
; Printer: A1 Mini
; Bed Size: 180 x 180mm
;
; ATTACHMENT: Pen Plotter
; Offset Compensation: X=0mm, Y=28mm
; (Coordinates auto-adjusted so design prints where shown on screen)
;
; SETTINGS:
; Z-Draw (pen down): 12.00mm
; Z-Lift (pen up): 20.00mm
; Z-Hop Type: normal
; Draw Speed: 1800mm/min
; Travel Speed: 18000mm/min
; Line Numbers: ENABLED (for pause/resume support)
; Total Paths: 243
;

; === INITIALIZATION ===
N10 M104 S0          ; Turn OFF nozzle heater (safety)
N20 M140 S0          ; Turn OFF bed heater (safety)
N30 M107             ; Turn OFF fan
N40 M221 S0          ; Set flow to 0% (no extrusion)

; === SAFE HOMING SEQUENCE ===
; CRITICAL: Lift pen FIRST to avoid dragging on paper during homing
N50 G91              ; Relative positioning
N60 G0 Z10.00 F3000  ; Lift pen up (relative)
N70 G90              ; Back to absolute positioning

; Home with pen lifted
N80 G28 X Y          ; Home X and Y only (pen stays lifted)
N90 G28 Z            ; Home Z axis
N100 G0 Z20.00 F3000  ; Move to full lift height after homing

; Move to safe zone (attachment has physical collision restrictions)
N110 G0 X0.00 Y180.00 F18000  ; Move to safe area

N120 G92 E0           ; Reset extruder position
N130 G90              ; Absolute positioning mode

; ===== BEGIN DRAWING =====

N140 G0 X92.89 Y130.02 F18000
N150 G0 Z12.00 F3000  ; Lower pen to draw height
N160 G1 X95.23 Y129.74 F1800
N170 G1 X96.82 Y128.62 F1800
N180 G1 X97.48 Y126.85 F1800
N190 G1 X97.54 Y123.73 F1800
N200 G1 X99.56 Y125.89 F1800
N210 G1 X100.07 Y125.77 F1800
N220 G1 X100.04 Y122.37 F1800
N230 G1 X99.21 Y119.53 F1800
N240 G1 X98.44 Y119.38 F1800
N250 G1 X97.11 Y121.72 F1800
N260 G1 X96.41 Y120.26 F1800
N270 G1 X96.65 Y119.13 F1800
N280 G1 X95.32 Y118.30 F1800
N290 G1 X95.39 Y117.85 F1800
N300 G1 X96.99 Y117.52 F1800
N310 G1 X97.56 Y116.22 F1800
N320 G1 X101.13 Y116.59 F1800
N330 G1 X100.67 Y118.42 F1800
N340 G1 X101.84 Y121.27 F1800
N350 G1 X102.89 Y122.23 F1800
N360 G1 X105.08 Y119.45 F1800
N370 G1 X106.92 Y120.25 F1800
N380 G1 X109.78 Y119.41 F1800
N390 G1 X112.45 Y120.30 F1800
N400 G1 X116.52 Y120.22 F1800
N410 G1 X118.30 Y119.55 F1800
N420 G1 X118.88 Y118.28 F1800
N430 G1 X117.07 Y111.76 F1800
N440 G1 X118.79 Y111.74 F1800
N450 G1 X119.02 Y113.98 F1800
N460 G1 X119.90 Y114.94 F1800
N470 G1 X122.45 Y113.09 F1800
N480 G1 X126.43 Y113.50 F1800
N490 G1 X131.30 Y111.05 F1800
N500 G1 X133.44 Y108.38 F1800
N510 G1 X134.16 Y106.52 F1800
N520 G1 X134.13 Y102.46 F1800
N530 G1 X132.60 Y96.80 F1800
N540 G1 X132.40 Y92.94 F1800
N550 G1 X135.22 Y86.82 F1800
N560 G1 X135.32 Y84.62 F1800
N570 G1 X133.03 Y84.04 F1800
N580 G1 X95.92 Y84.61 F1800
N590 G1 X90.43 Y81.18 F1800
N600 G1 X79.99 Y79.90 F1800
N610 G1 X71.09 Y80.94 F1800
N620 G1 X55.73 Y81.37 F1800
N630 G1 X47.52 Y82.61 F1800
N640 G1 X45.88 Y83.35 F1800
N650 G1 X45.37 Y84.86 F1800
N660 G1 X46.79 Y92.08 F1800
N670 G1 X48.92 Y98.60 F1800
N680 G1 X51.40 Y103.77 F1800
N690 G1 X48.47 Y105.24 F1800
N700 G1 X46.77 Y106.97 F1800
N710 G1 X43.70 Y115.67 F1800
N720 G1 X41.50 Y119.76 F1800
N730 G1 X40.68 Y124.06 F1800
N740 G1 X42.38 Y127.72 F1800
N750 G1 X48.27 Y128.92 F1800
N760 G1 X50.16 Y127.41 F1800
N770 G1 X51.35 Y127.43 F1800
N780 G1 X52.50 Y126.58 F1800
N790 G1 X53.41 Y123.45 F1800
N800 G1 X58.39 Y124.26 F1800
N810 G1 X61.33 Y126.92 F1800
N820 G1 X62.72 Y123.89 F1800
N830 G1 X64.65 Y124.92 F1800
N840 G1 X66.36 Y126.95 F1800
N850 G1 X67.99 Y127.41 F1800
N860 G1 X70.13 Y127.10 F1800
N870 G1 X73.28 Y129.56 F1800
N880 G1 X75.50 Y129.85 F1800
N890 G1 X76.62 Y129.23 F1800
N900 G1 X77.73 Y127.08 F1800
N910 G1 X82.10 Y128.61 F1800
N920 G1 X85.07 Y127.95 F1800
N930 G1 X86.66 Y126.58 F1800
N940 G1 X87.71 Y123.42 F1800
N950 G1 X88.35 Y123.28 F1800
N960 G1 X89.08 Y123.82 F1800
N970 G1 X89.60 Y127.94 F1800
N980 G1 X92.89 Y130.02 F1800
N990 G0 Z20.00 F3000  ; Lift pen (normal hop)
N1000 G0 X92.77 Y129.28 F18000
N1010 G0 Z12.00 F3000  ; Lower pen to draw height
N1020 G1 X89.99 Y126.81 F1800
N1030 G1 X93.13 Y128.99 F1800
N1040 G1 X94.33 Y128.75 F1800
N1050 G1 X95.18 Y127.84 F1800
N1060 G1 X93.31 Y128.34 F1800
N1070 G1 X92.09 Y127.92 F1800
N1080 G1 X90.06 Y125.39 F1800
N1090 G1 X89.96 Y124.12 F1800
N1100 G1 X92.84 Y126.33 F1800
N1110 G1 X93.99 Y125.57 F1800
N1120 G1 X93.61 Y123.05 F1800
N1130 G1 X92.37 Y120.94 F1800
N1140 G1 X90.88 Y120.61 F1800
N1150 G1 X89.83 Y121.46 F1800
N1160 G1 X89.69 Y120.13 F1800
N1170 G1 X91.18 Y117.28 F1800
N1180 G1 X93.57 Y117.58 F1800
N1190 G1 X94.75 Y118.71 F1800
N1200 G1 X96.77 Y124.43 F1800
N1210 G1 X96.74 Y126.95 F1800
N1220 G1 X95.98 Y128.66 F1800
N1230 G1 X94.76 Y129.33 F1800
N1240 G1 X92.77 Y129.28 F1800
N1250 G0 Z20.00 F3000  ; Lift pen (normal hop)
N1260 G0 X81.89 Y127.80 F18000
N1270 G0 Z12.00 F3000  ; Lower pen to draw height
N1280 G1 X81.20 Y126.59 F1800
N1290 G1 X81.57 Y124.15 F1800
N1300 G1 X82.50 Y125.86 F1800
N1310 G1 X82.42 Y127.37 F1800
N1320 G1 X81.89 Y127.80 F1800
N1330 G0 Z20.00 F3000  ; Lift pen (normal hop)
N1340 G0 X83.37 Y127.80 F18000
N1350 G0 Z12.00 F3000  ; Lower pen to draw height
N1360 G1 X82.71 Y123.58 F1800
N1370 G1 X84.15 Y122.94 F1800
N1380 G1 X85.81 Y123.17 F1800
N1390 G1 X86.60 Y124.23 F1800
N1400 G1 X86.40 Y126.00 F1800
N1410 G1 X83.37 Y127.80 F1800
N1420 G0 Z20.00 F3000  ; Lift pen (normal hop)
N1430 G0 X61.13 Y126.07 F18000
N1440 G0 Z12.00 F3000  ; Lower pen to draw height
N1450 G1 X58.72 Y123.59 F1800
N1460 G1 X53.04 Y122.23 F1800
N1470 G1 X51.86 Y120.77 F1800
N1480 G1 X51.43 Y118.77 F1800
N1490 G1 X51.93 Y116.27 F1800
N1500 G1 X56.27 Y114.26 F1800
N1510 G1 X57.08 Y111.36 F1800
N1520 G1 X58.72 Y110.74 F1800
N1530 G1 X60.79 Y111.25 F1800
N1540 G1 X61.34 Y110.62 F1800
N1550 G1 X61.98 Y106.39 F1800
N1560 G1 X61.67 Y105.42 F1800
N1570 G1 X60.14 Y104.16 F1800
N1580 G1 X65.37 Y105.55 F1800
N1590 G1 X71.45 Y108.21 F1800
N1600 G1 X71.95 Y110.47 F1800
N1610 G1 X71.69 Y113.51 F1800
N1620 G1 X70.02 Y117.63 F1800
N1630 G1 X70.67 Y120.20 F1800
N1640 G1 X66.29 Y117.79 F1800
N1650 G1 X64.41 Y117.14 F1800
N1660 G1 X62.77 Y117.29 F1800
N1670 G1 X64.01 Y123.02 F1800
N1680 G1 X62.55 Y122.61 F1800
N1690 G1 X61.74 Y123.22 F1800
N1700 G1 X61.13 Y126.07 F1800
N1710 G0 Z20.00 F3000  ; Lift pen (normal hop)
N1720 G0 X93.01 Y125.82 F18000
N1730 G0 Z12.00 F3000  ; Lower pen to draw height
N1740 G1 X91.69 Y123.59 F1800
N1750 G1 X93.23 Y124.09 F1800
N1760 G1 X93.51 Y125.23 F1800
N1770 G1 X93.01 Y125.82 F1800
N1780 G0 Z20.00 F3000  ; Lift pen (normal hop)
N1790 G0 X99.69 Y125.32 F18000
N1800 G0 Z12.00 F3000  ; Lower pen to draw height
N1810 G1 X97.36 Y122.50 F1800
N1820 G1 X99.00 Y120.27 F1800
N1830 G1 X99.69 Y125.32 F1800
N1840 G0 Z20.00 F3000  ; Lift pen (normal hop)
N1850 G0 X92.27 Y123.10 F18000
N1860 G0 Z12.00 F3000  ; Lower pen to draw height
N1870 G1 X90.57 Y122.51 F1800
N1880 G1 X92.23 Y122.59 F1800
N1890 G1 X92.27 Y123.10 F1800
N1900 G0 Z20.00 F3000  ; Lift pen (normal hop)
N1910 G0 X87.82 Y122.85 F18000
N1920 G0 Z12.00 F3000  ; Lower pen to draw height
N1930 G1 X88.98 Y122.57 F1800
N1940 G1 X87.82 Y122.85 F1800
N1950 G0 Z20.00 F3000  ; Lift pen (normal hop)
N1960 G0 X91.53 Y122.11 F18000
N1970 G0 Z12.00 F3000  ; Lower pen to draw height
N1980 G1 X91.28 Y121.48 F1800
N1990 G1 X92.03 Y121.71 F1800
N2000 G1 X91.53 Y122.11 F1800
N2010 G0 Z20.00 F3000  ; Lift pen (normal hop)
N2020 G0 X87.58 Y121.86 F18000
N2030 G0 Z12.00 F3000  ; Lower pen to draw height
N2040 G1 X85.44 Y118.77 F1800
N2050 G1 X81.72 Y117.69 F1800
N2060 G1 X77.87 Y117.82 F1800
N2070 G1 X76.77 Y119.12 F1800
N2080 G1 X76.49 Y120.85 F1800
N2090 G1 X73.76 Y119.14 F1800
N2100 G1 X71.98 Y121.24 F1800
N2110 G1 X71.11 Y117.91 F1800
N2120 G1 X72.68 Y114.11 F1800
N2130 G1 X73.32 Y109.15 F1800
N2140 G1 X76.22 Y107.99 F1800
N2150 G1 X80.07 Y105.36 F1800
N2160 G1 X81.50 Y105.83 F1800
N2170 G1 X86.97 Y112.25 F1800
N2180 G1 X87.45 Y114.11 F1800
N2190 G1 X87.02 Y116.61 F1800
N2200 G1 X89.74 Y117.34 F1800
N2210 G1 X90.26 Y118.12 F1800
N2220 G1 X89.01 Y119.41 F1800
N2230 G1 X88.80 Y121.49 F1800
N2240 G1 X87.58 Y121.86 F1800
N2250 G0 Z20.00 F3000  ; Lift pen (normal hop)
N2260 G0 X102.90 Y121.62 F18000
N2270 G0 Z12.00 F3000  ; Lower pen to draw height
N2280 G1 X101.39 Y118.50 F1800
N2290 G1 X101.49 Y117.51 F1800
N2300 G1 X102.17 Y117.10 F1800
N2310 G1 X102.88 Y117.38 F1800
N2320 G1 X102.81 Y118.47 F1800
N2330 G1 X104.63 Y118.50 F1800
N2340 G1 X102.47 Y119.34 F1800
N2350 G1 X103.68 Y120.27 F1800
N2360 G1 X102.90 Y121.62 F1800
N2370 G0 Z20.00 F3000  ; Lift pen (normal hop)
N2380 G0 X107.11 Y119.64 F18000
N2390 G0 Z12.00 F3000  ; Lower pen to draw height
N2400 G1 X103.65 Y115.59 F1800
N2410 G1 X104.56 Y113.99 F1800
N2420 G1 X106.42 Y114.45 F1800
N2430 G1 X107.77 Y115.58 F1800
N2440 G1 X106.77 Y115.66 F1800
N2450 G1 X106.46 Y116.36 F1800
N2460 G1 X109.08 Y118.96 F1800
N2470 G1 X107.11 Y119.64 F1800
N2480 G0 Z20.00 F3000  ; Lift pen (normal hop)
N2490 G0 X112.30 Y119.64 F18000
N2500 G0 Z12.00 F3000  ; Lower pen to draw height
N2510 G1 X111.69 Y118.67 F1800
N2520 G1 X112.13 Y117.34 F1800
N2530 G1 X114.40 Y116.45 F1800
N2540 G1 X117.39 Y119.21 F1800
N2550 G1 X112.30 Y119.64 F1800
N2560 G0 Z20.00 F3000  ; Lift pen (normal hop)
N2570 G0 X117.98 Y118.65 F18000
N2580 G0 Z12.00 F3000  ; Lower pen to draw height
N2590 G1 X116.00 Y116.39 F1800
N2600 G1 X116.93 Y115.47 F1800
N2610 G1 X117.90 Y116.13 F1800
N2620 G1 X117.98 Y118.65 F1800
N2630 G0 Z20.00 F3000  ; Lift pen (normal hop)
N2640 G0 X104.14 Y117.91 F18000
N2650 G0 Z12.00 F3000  ; Lower pen to draw height
N2660 G1 X103.06 Y116.27 F1800
N2670 G1 X104.14 Y117.91 F1800
N2680 G0 Z20.00 F3000  ; Lift pen (normal hop)
N2690 G0 X109.33 Y117.91 F18000
N2700 G0 Z12.00 F3000  ; Lower pen to draw height
N2710 G1 X109.01 Y117.45 F1800
N2720 G1 X109.58 Y117.51 F1800
N2730 G1 X109.33 Y117.91 F1800
N2740 G0 Z20.00 F3000  ; Lift pen (normal hop)
N2750 G0 X94.50 Y116.67 F18000
N2760 G0 Z12.00 F3000  ; Lower pen to draw height
N2770 G1 X88.01 Y115.87 F1800
N2780 G1 X89.34 Y106.88 F1800
N2790 G1 X90.22 Y105.63 F1800
N2800 G1 X92.07 Y104.53 F1800
N2810 G1 X98.28 Y103.39 F1800
N2820 G1 X98.70 Y103.94 F1800
N2830 G1 X96.48 Y115.96 F1800
N2840 G1 X94.50 Y116.67 F1800
N2850 G0 Z20.00 F3000  ; Lift pen (normal hop)
N2860 G0 X120.21 Y113.95 F18000
N2870 G0 Z12.00 F3000  ; Lower pen to draw height
N2880 G1 X119.53 Y111.28 F1800
N2890 G1 X116.68 Y110.68 F1800
N2900 G1 X116.36 Y106.97 F1800
N2910 G1 X115.57 Y105.69 F1800
N2920 G1 X114.57 Y105.98 F1800
N2930 G1 X111.60 Y109.09 F1800
N2940 G1 X108.99 Y107.06 F1800
N2950 G1 X106.95 Y102.71 F1800
N2960 G1 X110.49 Y98.40 F1800
N2970 G1 X112.61 Y97.45 F1800
N2980 G1 X114.64 Y97.39 F1800
N2990 G1 X115.43 Y97.67 F1800
N3000 G1 X115.17 Y99.18 F1800
N3010 G1 X117.58 Y99.99 F1800
N3020 G1 X119.74 Y100.36 F1800
N3030 G1 X122.68 Y99.21 F1800
N3040 G1 X124.22 Y99.83 F1800
N3050 G1 X123.82 Y102.06 F1800
N3060 G1 X126.54 Y104.87 F1800
N3070 G1 X125.78 Y110.04 F1800
N3080 G1 X126.25 Y110.76 F1800
N3090 G1 X125.27 Y111.40 F1800
N3100 G1 X125.06 Y112.49 F1800
N3110 G1 X122.59 Y112.38 F1800
N3120 G1 X120.21 Y113.95 F1800
N3130 G0 Z20.00 F3000  ; Lift pen (normal hop)
N3140 G0 X126.39 Y112.96 F18000
N3150 G0 Z12.00 F3000  ; Lower pen to draw height
N3160 G1 X126.25 Y111.48 F1800
N3170 G1 X128.10 Y110.49 F1800
N3180 G1 X126.72 Y110.00 F1800
N3190 G1 X126.90 Y107.49 F1800
N3200 G1 X128.52 Y106.82 F1800
N3210 G1 X127.24 Y105.81 F1800
N3220 G1 X126.83 Y103.57 F1800
N3230 G1 X124.92 Y101.78 F1800
N3240 G1 X124.67 Y99.40 F1800
N3250 G1 X122.86 Y98.38 F1800
N3260 G1 X120.10 Y99.32 F1800
N3270 G1 X118.57 Y99.25 F1800
N3280 G1 X116.44 Y97.98 F1800
N3290 G1 X117.22 Y96.96 F1800
N3300 G1 X119.47 Y96.46 F1800
N3310 G1 X118.03 Y94.86 F1800
N3320 G1 X119.45 Y92.80 F1800
N3330 G1 X123.20 Y90.47 F1800
N3340 G1 X124.69 Y91.44 F1800
N3350 G1 X124.97 Y90.00 F1800
N3360 G1 X127.31 Y89.68 F1800
N3370 G1 X129.91 Y90.69 F1800
N3380 G1 X133.69 Y105.29 F1800
N3390 G1 X133.21 Y107.40 F1800
N3400 G1 X130.71 Y111.02 F1800
N3410 G1 X126.39 Y112.96 F1800
N3420 G0 Z20.00 F3000  ; Lift pen (normal hop)
N3430 G0 X73.73 Y108.02 F18000
N3440 G0 Z12.00 F3000  ; Lower pen to draw height
N3450 G1 X60.97 Y103.05 F1800
N3460 G1 X59.37 Y103.01 F1800
N3470 G1 X58.34 Y103.74 F1800
N3480 G1 X56.09 Y103.32 F1800
N3490 G1 X52.50 Y103.66 F1800
N3500 G1 X50.87 Y100.93 F1800
N3510 G1 X48.43 Y94.18 F1800
N3520 G1 X46.79 Y87.06 F1800
N3530 G1 X46.73 Y84.20 F1800
N3540 G1 X55.16 Y82.64 F1800
N3550 G1 X69.96 Y82.28 F1800
N3560 G1 X82.60 Y81.08 F1800
N3570 G1 X89.58 Y81.92 F1800
N3580 G1 X94.38 Y84.69 F1800
N3590 G1 X95.52 Y85.93 F1800
N3600 G1 X95.29 Y88.68 F1800
N3610 G1 X93.20 Y90.57 F1800
N3620 G1 X87.81 Y93.03 F1800
N3630 G1 X85.66 Y95.01 F1800
N3640 G1 X84.59 Y95.04 F1800
N3650 G1 X79.88 Y92.17 F1800
N3660 G1 X76.05 Y92.11 F1800
N3670 G1 X82.18 Y94.66 F1800
N3680 G1 X84.02 Y96.53 F1800
N3690 G1 X81.64 Y100.53 F1800
N3700 G1 X80.73 Y103.25 F1800
N3710 G1 X75.45 Y107.33 F1800
N3720 G1 X73.73 Y108.02 F1800
N3730 G0 Z20.00 F3000  ; Lift pen (normal hop)
N3740 G0 X57.54 Y121.86 F18000
N3750 G0 Z12.00 F3000  ; Lower pen to draw height
N3760 G1 X58.45 Y121.29 F1800
N3770 G1 X58.09 Y119.43 F1800
N3780 G1 X57.50 Y119.97 F1800
N3790 G1 X57.54 Y121.86 F1800
N3800 G0 Z20.00 F3000  ; Lift pen (normal hop)
N3810 G0 X54.33 Y121.62 F18000
N3820 G0 Z12.00 F3000  ; Lower pen to draw height
N3830 G1 X54.85 Y119.48 F1800
N3840 G1 X54.03 Y118.93 F1800
N3850 G1 X53.45 Y120.41 F1800
N3860 G1 X54.33 Y121.62 F1800
N3870 G0 Z20.00 F3000  ; Lift pen (normal hop)
N3880 G0 X57.54 Y113.21 F18000
N3890 G0 Z12.00 F3000  ; Lower pen to draw height
N3900 G1 X58.67 Y111.81 F1800
N3910 G1 X57.45 Y112.24 F1800
N3920 G1 X57.54 Y113.21 F1800
N3930 G0 Z20.00 F3000  ; Lift pen (normal hop)
N3940 G0 X124.53 Y109.50 F18000
N3950 G0 Z12.00 F3000  ; Lower pen to draw height
N3960 G1 X125.42 Y108.78 F1800
N3970 G1 X125.08 Y107.06 F1800
N3980 G1 X124.53 Y109.50 F1800
N3990 G0 Z20.00 F3000  ; Lift pen (normal hop)
N4000 G0 X121.81 Y109.26 F18000
N4010 G0 Z12.00 F3000  ; Lower pen to draw height
N4020 G1 X122.30 Y108.96 F1800
N4030 G1 X121.75 Y107.03 F1800
N4040 G1 X121.17 Y108.09 F1800
N4050 G1 X121.81 Y109.26 F1800
N4060 G0 Z20.00 F3000  ; Lift pen (normal hop)
N4070 G0 X122.31 Y100.85 F18000
N4080 G0 Z12.00 F3000  ; Lower pen to draw height
N4090 G1 X123.10 Y100.34 F1800
N4100 G1 X122.00 Y99.90 F1800
N4110 G1 X121.70 Y100.37 F1800
N4120 G1 X122.31 Y100.85 F1800
N4130 G0 Z20.00 F3000  ; Lift pen (normal hop)
N4140 G0 X60.88 Y126.93 F18000
N4150 G0 Z12.00 F3000  ; Lower pen to draw height
N4160 G1 X61.62 Y126.93 F1800
N4170 G1 X60.63 Y126.68 F1800
N4180 G1 X61.87 Y126.44 F1800
N4190 G1 X60.14 Y126.19 F1800
N4200 G1 X62.11 Y125.94 F1800
N4210 G1 X59.89 Y125.70 F1800
N4220 G1 X60.63 Y125.45 F1800
N4230 G1 X59.40 Y125.20 F1800
N4240 G1 X60.38 Y124.95 F1800
N4250 G1 X59.15 Y124.71 F1800
N4260 G0 Z20.00 F3000  ; Lift pen (normal hop)
N4270 G0 X58.65 Y124.46 F18000
N4280 G0 Z12.00 F3000  ; Lower pen to draw height
N4290 G1 X59.89 Y124.46 F1800
N4300 G1 X58.41 Y124.21 F1800
N4310 G0 Z20.00 F3000  ; Lift pen (normal hop)
N4320 G0 X57.66 Y123.97 F18000
N4330 G0 Z12.00 F3000  ; Lower pen to draw height
N4340 G1 X59.40 Y123.97 F1800
N4350 G1 X56.18 Y123.72 F1800
N4360 G0 Z20.00 F3000  ; Lift pen (normal hop)
N4370 G0 X56.18 Y122.98 F18000
N4380 G0 Z12.00 F3000  ; Lower pen to draw height
N4390 G1 X40.61 Y122.98 F1800
N4400 G1 X54.20 Y122.73 F1800
N4410 G0 Z20.00 F3000  ; Lift pen (normal hop)
N4420 G0 X54.20 Y123.47 F18000
N4430 G0 Z12.00 F3000  ; Lower pen to draw height
N4440 G1 X58.65 Y123.47 F1800
N4450 G0 Z20.00 F3000  ; Lift pen (normal hop)
N4460 G0 X57.66 Y123.22 F18000
N4470 G0 Z12.00 F3000  ; Lower pen to draw height
N4480 G1 X40.61 Y123.47 F1800
N4490 G1 X53.22 Y123.72 F1800
N4500 G1 X40.61 Y123.97 F1800
N4510 G1 X53.22 Y124.21 F1800
N4520 G1 X40.86 Y124.46 F1800
N4530 G1 X53.22 Y124.71 F1800
N4540 G1 X41.10 Y124.95 F1800
N4550 G1 X53.22 Y125.20 F1800
N4560 G1 X41.35 Y125.45 F1800
N4570 G1 X52.97 Y125.70 F1800
